toolkits/global/packages/global-context/img/icons/warning.svg

<svg height="24" viewBox="0 0 24 24" width="24" xmlns="http://www.w3.org/2000/svg"><path d="m12 14.75c.6903559 0 1.25.5596441 1.25 1.25s-.5596441 1.25-1.25 1.25-1.25-.5596441-1.25-1.25.5596441-1.25 1.25-1.25zm.4132005-7.75c.5522847 0 1 .44771525 1 1 0 .02771774-.0011525.05542349-.0034543.08304548l-.3333333 4.00000002c-.043191.5182921-.4764571.9169545-.9965458.9169545h-.1597342c-.5200887 0-.9533548-.3986624-.9965458-.9169545l-.3333333-4.00000002c-.0458648-.55037702.3631232-1.03372649.9135003-1.07959124l.0414868-.00259031zm-.4132005 14c-4.97056275 0-9-4.0294373-9-9 0-4.97056275 4.02943725-9 9-9 4.9705627 0 9 4.02943725 9 9 0 4.9705627-4.0294373 9-9 9zm0-1c4.418278 0 8-3.581722 8-8s-3.581722-8-8-8-8 3.581722-8 8 3.581722 8 8 8z" fill="#666" fill-rule="evenodd"/></svg>

<?xml version="1.0" encoding="UTF-8"?>
<svg width="24px" height="24px" viewBox="0 0 24 24" version="1.1" xmlns="http://www.w3.org/2000/svg" xmlns:xlink="http://www.w3.org/1999/xlink">
    <!-- Generator: Sketch 63.1 (92452) - https://sketch.com -->
    <title>icon-icon / warning</title>
    <desc>Created with Sketch.</desc>
    <g id="icon-/-warning" stroke="none" stroke-width="1" fill="none" fill-rule="evenodd">
        <path d="M12,14.75 C12.6903559,14.75 13.25,15.3096441 13.25,16 C13.25,16.6903559 12.6903559,17.25 12,17.25 C11.3096441,17.25 10.75,16.6903559 10.75,16 C10.75,15.3096441 11.3096441,14.75 12,14.75 Z M12.4132005,7 C12.9654852,7 13.4132005,7.44771525 13.4132005,8 C13.4132005,8.02771774 13.412048,8.05542349 13.4097462,8.08304548 L13.0764129,12.0830455 C13.0332219,12.6013376 12.5999558,13 12.0798671,13 L11.9201329,13 C11.4000442,13 10.9667781,12.6013376 10.9235871,12.0830455 L10.5902538,8.08304548 C10.544389,7.53266846 10.953377,7.04931899 11.5037541,7.00345424 L11.5452409,7.00086393 L11.5452409,7.00086393 L12.4132005,7 Z M12,21 C7.02943725,21 3,16.9705627 3,12 C3,7.02943725 7.02943725,3 12,3 C16.9705627,3 21,7.02943725 21,12 C21,16.9705627 16.9705627,21 12,21 Z M12,20 C16.418278,20 20,16.418278 20,12 C20,7.581722 16.418278,4 12,4 C7.581722,4 4,7.581722 4,12 C4,16.418278 7.581722,20 12,20 Z" id="warning" fill="#666666"></path>
    </g>
</svg>
